Vault/vault.svg

<svg viewBox="0 0 127.52 123.63" xmlns="http://www.w3.org/2000/svg"><path d="m0 0 63.52 123.63L127.52 0Zm53.64 49.07H43.52V39h10.12Zm0-15.17H43.52V23.78h10.12Zm15.18 30.35H58.75V54.13h10.07Zm0-15.18H58.75V39h10.07Zm0-15.17H58.75V23.78h10.07Zm15.09 15.17H73.75V39h10.12ZM73.75 33.9V23.78h10.12V33.9Z" style="fill:#ffd814"/></svg>

<svg xmlns="http://www.w3.org/2000/svg" viewBox="0 0 127.52 123.63"><defs><style>.a{fill:#ffd814;}</style></defs><path class="a" d="M0,0,63.52,123.63,127.52,0ZM53.64,49.07H43.52V39H53.64Zm0-15.17H43.52V23.78H53.64ZM68.82,64.25H58.75V54.13H68.82Zm0-15.18H58.75V39H68.82Zm0-15.17H58.75V23.78H68.82ZM83.91,49.07H73.75V39H83.87ZM73.75,33.9V23.78H83.87V33.9Z"/></svg>
